X:178
T:New Daniel Cooper
M:2/4
L:1/8
B:Thompson's Compleat Collection of 200 Favourite Country Dances, vol. 1 (London, 1757)
Z:Transcribed and edited by Flynn Titford-Mock, 2007
Z:abc's:AK/Fiddler's Companion
K:G
d2 (e/f/g)|f>edf|e^cAc|d2 d2::(3 BGB (3BGB|(3cAc (3cAc|
(3BGB (3BGB|d2 d2|(3BGB (3BGB|(3cAc (3cAc|(3BGB (3AFD|G2 G2:|

